X:1
T: The Earl of Hadington
P:A very old tune
R:Strathspey
Q: 128
K:Am
M:4/4
L:1/16
|:E3G c3G AAA2 A4|c4 g3c a3c eg3|E3G c3G Aa3 a3g|g3d ec3 gG3 Ac3|
E3G c3G AAA2 A4|c4 g3c a3c eg3|E3G c3G Aa3 a3g|g3d ec3 gG3 Ac3|
f3g a3g ge3 e4|e3d d3e g3d eg3|G3G c3G Aa3 a3g|c'3g a3c A3G A2c2|
f3g a3g ge3 e4|e3d d3e g3d eg3|G3G c3G Aa3 a3g|c'3g a3c A3G A4:|
